src/Static/Icons/decline.svg

<?xml version="1.0" encoding="UTF-8"?>
<svg width="59px" height="59px" viewBox="0 0 59 59" version="1.1" xmlns="http://www.w3.org/2000/svg" xmlns:xlink="http://www.w3.org/1999/xlink">
    <title>close</title>
    <defs>
        <filter id="filter-1">
            <feColorMatrix in="SourceGraphic" type="matrix" values="0 0 0 0 0.101961 0 0 0 0 0.101961 0 0 0 0 0.113725 0 0 0 1.000000 0"></feColorMatrix>
        </filter>
        <linearGradient x1="50%" y1="0%" x2="50%" y2="100%" id="linearGradient-2">
            <stop stop-color="#000000" offset="0%"></stop>
            <stop stop-color="#000000" offset="100%"></stop>
        </linearGradient>
        <path d="M25.5,0 C11.4330986,0 0,11.4330986 0,25.5 C0,39.5669014 11.4330986,51 25.5,51 C39.5669014,51 51,39.5669014 51,25.5 C51,11.4330986 39.5669014,0 25.5,0 Z M25.5,48.4260563 C12.8697183,48.4260563 2.57394366,38.1302817 2.57394366,25.5 C2.57394366,12.8697183 12.8697183,2.57394366 25.5,2.57394366 C38.1302817,2.57394366 48.4260563,12.8697183 48.4260563,25.5 C48.4260563,38.1302817 38.1302817,48.4260563 25.5,48.4260563 Z" id="path-3"></path>
        <filter x="-13.7%" y="-9.8%" width="127.5%" height="127.5%" filterUnits="objectBoundingBox" id="filter-4">
            <feOffset dx="0" dy="2" in="SourceAlpha" result="shadowOffsetOuter1"></feOffset>
            <feGaussianBlur stdDeviation="2" in="shadowOffsetOuter1" result="shadowBlurOuter1"></feGaussianBlur>
            <feColorMatrix values="0 0 0 0 0   0 0 0 0 0   0 0 0 0 0  0 0 0 0.5 0" type="matrix" in="shadowBlurOuter1"></feColorMatrix>
        </filter>
        <path d="M27.863354,26.0311526 L35.6273292,18.2429907 C36.1242236,17.7445483 36.1242236,16.8722741 35.6273292,16.3738318 C35.1304348,15.8753894 34.2608696,15.8753894 33.7639752,16.3738318 L26,24.1619938 L18.2360248,16.3738318 C17.7391304,15.8753894 16.8695652,15.8753894 16.3726708,16.3738318 C15.8757764,16.8722741 15.8757764,17.7445483 16.3726708,18.2429907 L24.136646,26.0311526 L16.3726708,33.7570093 C15.8757764,34.2554517 15.8757764,35.1277259 16.3726708,35.6261682 C16.621118,35.8753894 16.9937888,36 17.3043478,36 C17.6149068,36 17.9875776,35.8753894 18.2360248,35.6261682 L26,27.8380062 L33.7639752,35.6261682 C34.0124224,35.8753894 34.3850932,36 34.6956522,36 C35.0062112,36 35.378882,35.8753894 35.6273292,35.6261682 C36.1242236,35.1277259 36.1242236,34.2554517 35.6273292,33.7570093 L27.863354,26.0311526 Z" id="path-5"></path>
        <filter x="-40.0%" y="-30.0%" width="180.0%" height="180.0%" filterUnits="objectBoundingBox" id="filter-6">
            <feMorphology radius="1" operator="dilate" in="SourceAlpha" result="shadowSpreadOuter1"></feMorphology>
            <feOffset dx="0" dy="2" in="shadowSpreadOuter1" result="shadowOffsetOuter1"></feOffset>
            <feGaussianBlur stdDeviation="2" in="shadowOffsetOuter1" result="shadowBlurOuter1"></feGaussianBlur>
            <feComposite in="shadowBlurOuter1" in2="SourceAlpha" operator="out" result="shadowBlurOuter1"></feComposite>
            <feColorMatrix values="0 0 0 0 0   0 0 0 0 0   0 0 0 0 0  0 0 0 0.5 0" type="matrix" in="shadowBlurOuter1"></feColorMatrix>
        </filter>
    </defs>
    <g id="Page-1" stroke="none" stroke-width="1" fill="none" fill-rule="evenodd">
        <g id="close" transform="translate(-133.000000, -611.000000)" filter="url(#filter-1)">
            <g transform="translate(137.000000, 613.000000)">
                <g id="Shape" fill-rule="nonzero">
                    <use fill="black" fill-opacity="1" filter="url(#filter-4)" xlink:href="#path-3"></use>
                    <use fill="url(#linearGradient-2)" xlink:href="#path-3"></use>
                </g>
                <g id="Path" fill-rule="nonzero">
                    <use fill="black" fill-opacity="1" filter="url(#filter-6)" xlink:href="#path-5"></use>
                    <use stroke="#1A1A1D" stroke-width="2" fill="url(#linearGradient-2)" xlink:href="#path-5"></use>
                </g>
            </g>
        </g>
    </g>
</svg>

<svg xmlns="http://www.w3.org/2000/svg" width="59" height="59" xmlns:xlink="http://www.w3.org/1999/xlink"><title>close</title><defs><filter id="a"><feColorMatrix in="SourceGraphic" values="0 0 0 0 0.101961 0 0 0 0 0.101961 0 0 0 0 0.113725 0 0 0 1.000000 0"/></filter><linearGradient id="d" x1="50%" x2="50%" y1="0%" y2="100%"><stop offset="0%"/><stop offset="100%"/></linearGradient><path id="c" d="M25.5 0C11.43 0 0 11.43 0 25.5S11.43 51 25.5 51 51 39.57 51 25.5 39.57 0 25.5 0zm0 48.43c-12.63 0-22.93-10.3-22.93-22.93 0-12.63 10.3-22.93 22.93-22.93 12.63 0 22.93 10.3 22.93 22.93 0 12.63-10.3 22.93-22.93 22.93z"/><filter id="b" width="127.5%" height="127.5%" x="-13.7%" y="-9.8%" filterUnits="objectBoundingBox"><feOffset dy="2" in="SourceAlpha" result="shadowOffsetOuter1"/><feGaussianBlur stdDeviation="2" in="shadowOffsetOuter1" result="shadowBlurOuter1"/><feColorMatrix values="0 0 0 0 0 0 0 0 0 0 0 0 0 0 0 0 0 0 0.5 0" in="shadowBlurOuter1"/></filter><path id="f" d="M27.86 26.03l7.77-7.8c.5-.5.5-1.36 0-1.86s-1.37-.5-1.87 0L26 24.17l-7.76-7.8c-.5-.5-1.37-.5-1.87 0s-.5 1.37 0 1.87l7.77 7.8-7.77 7.72c-.5.5-.5 1.37 0 1.87.25.25.62.37.93.37.3 0 .7-.12.94-.37l7.76-7.8 7.76 7.8c.25.25.63.37.94.37.3 0 .68-.12.93-.37.5-.5.5-1.37 0-1.87l-7.77-7.73z"/><filter id="e" width="180%" height="180%" x="-40%" y="-30%" filterUnits="objectBoundingBox"><feMorphology radius="1" operator="dilate" in="SourceAlpha" result="shadowSpreadOuter1"/><feOffset dy="2" in="shadowSpreadOuter1" result="shadowOffsetOuter1"/><feGaussianBlur stdDeviation="2" in="shadowOffsetOuter1" result="shadowBlurOuter1"/><feComposite in="shadowBlurOuter1" in2="SourceAlpha" operator="out" result="shadowBlurOuter1"/><feColorMatrix values="0 0 0 0 0 0 0 0 0 0 0 0 0 0 0 0 0 0 0.5 0" in="shadowBlurOuter1"/></filter></defs><g fill="none"><g fill-rule="nonzero" transform="translate(-133 -611)" filter="url(#a)"><g transform="translate(137 613)"><use fill="#000" filter="url(#b)" xlink:href="#c"/><use fill="url(#d)" xlink:href="#c"/></g><g transform="translate(137 613)"><use fill="#000" filter="url(#e)" xlink:href="#f"/><use fill="url(#d)" stroke="#1A1A1D" stroke-width="2" xlink:href="#f"/></g></g></g></svg>
